X:1
T:E minor Daniel Belknap, 1800
T:Joel Barlow, 1786 (Psalm 136)   10 10. 10 10.
T:Kingston
T:Transcribed from The Evangelical Harmony, 1800.
%%score [ 1 2 3 4 ]
L:1/8
M:4/4
K:G
V:1 treble nm="Treble" snm="Tr"
V:2 treble nm="Counter" snm="C"
V:3 treble-8 nm="Tenor" snm="T"
V:4 bass nm="Bass" snm="B"
V:1
 B4 | B2 B2 B2 B2 | e2 dc B2 AG | F6 G2 | B6 d2 | d2 d2 c2 c2 | B2 B2 B4- | B4 z4 | B4 d2 d2 | %9
w: 1.~A-|long the banks where|Ba- bel's * cur- rent *|flows, Our|cap- tive|bands in deep de-|spon- dence strayed;~|_|While Zi- on's|
 d6 c2 | Bc dc B2 B2 | B6 G2 | B4 z2 B2 | B4 d2 z2 | c2 Bc B2 B2 | B8 |] %16
w: fall in|sad * re- * mem- brance|rose, Her|friends, her|child- ren,|min- gled * with the|dead,|
V:2
 E4 | E2 F2 G2 G2 | G2 F2 E2 E2 | ^D6 D2 | E6 F2 | G2 GF E2 AG | F2 F2 G4- | G4 z4 | G4 F2 F2 | %9
w: 2.~But|how, in hea- then|chains and lands un-|known, Shall|Is- rael's|sons a * song of *|Zi- on raise?~|_|O hap- less|
 F6 G2 | G2 G2 G2 G2 | F6 E2 | E4 z2 G2 | G4 G2 z2 | E2 E2 E2 ^D2 | E8 |] %16
w: Sa- lem,|God's ter- res- trial|throne, Thou|land of|glo- ry,|sa- cred mount of|priase.|
V:3
 B4 | e2 ^d2 e2 B2 | c2 BA G2 A2 | B6 E2 | G6 A2 | B2 B2 eg fe | ^d2 d2 e4- | e4 z4 | B4 B2 B2 | %9
w: 3.~If|e'er my mem- ory|lose thy * love- ly|name, If|my cold|heart ne- glect * my *|kin- dred race,~|_|Let dire des-|
 A6 GA | B2 B2 e2 e2 | ^d6 B2 | e4 z2 G2 | d4 B2 z2 | e2 BA G2 F2 | E8 |] %16
w: truc- tion *|seize this guil- ty|frame: My|hand shall|per- ish,|and my * voice shall|cease.|
V:4
"^___________________________________________\nEdited by B. C. Johnston, 2015\n   1.  Measure 11, \nCounter\n:  last note changed from F(#) to G.\n   2. Measure 12, Counter:  first note changed from G to F(#)." E,4 | %1
w: 4.~Yet|
 E,2 B,,2 E,2 E,2 | E,2 F,2 G,2 F,E, | B,,6 B,,2 | E,6 D,2 | G,2 G,2 A,2 A,2 | B,2 B,,2 E,4- | %7
w: shall the Lord, who|hears when Zi- on *|calls, O'er-|take her|foes with ter- ror|and dis- may;~|
 E,8 | E,4 B,,2 B,,C, | D,6 E,2 | G,2 G,2 G,F, E,2 | B,6 E,2 | E,4 z2 E,2 | G,4 G,2 z2 | %14
w: _|His arm a- *|venge her|de- so- la- * ted|walls, And|raise her|chil- dren|
 A,2 G,F, E,2 B,,2 | E,8 |] %16
w: to e- * ter- nal|day.|

